!!!!SEGMENT: pl-sa--24-a-i-24_anonim--andantino-cum-variazion.krn
!!!cenid: 17xx:707
!!!COM: Anonim
!!!COM-rismid: pe30004985
!!!CDT:
!!!CNT:
!!!OTL: Andantino cum variazion
!!!PDT:
!!!AGN: Secular; Variations
!!!SMS-siglum: PL-SA
!!!SMS-shelfmark: 24/A I 24
!!!SMS-shelfwork: W
!!!SMS-variant:
!!!SMS-altvar:
!!!NIFC-rismid: 1001065742
!!!URL-scan: http://bc.bdsandomierz.pl/dlibra/publication/1257/edition/1225/content
!!!ONB-nifc:
!!!AIN: 1 empty
!!!key:
**kern	**kern	**dynam
*part1	*part1	*part1
*staff2	*staff1	*
*Iempty	*Iempty	*
*I"Clavecin	*	*
*I'Clav.	*	*
*clefF4	*clefG2	*
*k[f#c#]	*k[f#c#]	*
*D:	*D:	*
*M2/4	*M2/4	*
*>[A,A,B,B,C,C,D,A,A,B,B,E,E,F,F,G,G,H]	*>[A,A,B,B,C,C,D,A,A,B,B,E,E,F,F,G,G,H]	*
=1	=1	=1
*>A	*>A	*>A
*clefG2	*	*
!	!LO:TX:i:a:B:t=Andante	!
!	!LO:TX:b:t=P:problem=Andante przed akoladą	!
!	!LO:TX:b:t=P:problem=caudy po prawej&colon; global	!
!	!LO:TX:b:t=P:problem=znaki przykluczowe przed kluczami	!
8d/L 8f#	4dd\	p
8A/	.	.
8d/ 8f#	8dd\L	.
8A/J	8ff#\J	.
=2	=2	=2
*rep	*	*
8d/L 8f#	4aa\	.
8A/	.	.
8d/ 8f#	4aa\	.
8A/J	.	.
*Xrep	*	*
=3	=3	=3
8e/L 8g	4ee\	.
8A/	.	.
.	16qqff#/LL	.
.	16qqee/	.
.	16qqdd#X/JJ	.
!	!LO:SIC:s=8.ee	!
!	!LO:N:vis=8	!
8e/ 8g	8.ee\L	.
8A/J	.	.
.	16ff#\Jk	.
=4	=4	=4
8c#/L 8e	(>4.gg\	.
8A/	.	.
8c#/ 8e	.	.
8A/J	8ee\)	.
=5	=5	=5
8d/L 8f#	4dd\|	.
8A/	.	.
8d/ 8f#	8dd\L	.
8A/J	8ff#\J	.
=6	=6	=6
8e/L 8g	4ee\	.
8A/	.	.
8e/ 8g	8ee\L	.
8A/J	8gg\J	.
=7	=7	=7
!	!LO:SIC:t=lub 16qqdd	!
.	8qqdd/	.
8e/L 8g	8cc#\L	.
8A/	16r	.
.	16b\Jk	.
8e/ 8g	8cc#\L	.
8A/J	16r	.
.	16ee\Jk	.
=8	=8	=8
.	8qqee/	.
*	*2\right	*
2d/ 2f#	2dd\	.
=9:|!|:	=9:|!|:	=9:|!|:
*>B	*>B	*>B
*clefF4	*	*
!LO:TX:b:t=P:problem=klucz F4 zanotowany o tercję za nisko (na 3 linii)	!	!
4c#\ 4e	4cc#\ 4ee	.
4c#\ 4e	4cc#\ 4ee	.
!LO:LB:g=original	!	!
=10	=10	=10
4.c#\ 4.e	4.cc#\ 4.ee	.
8A\ 8c#	8a\ 8cc#	.
=11	=11	=11
!LO:SIC:s=8.E 8.B	!LO:SIC:s=8.g# 8.b	!
!LO:N:vis=8	!LO:N:vis=8	!
8.E\L 8.B	8.g#X/L 8.b	.
16A\Jk 16c#	16a/Jk 16cc#	.
!LO:SIC:s=8.B 8.d	!LO:SIC:s=8.b 8.dd	!
!LO:N:n=1:vis=8	!LO:N:n=1:vis=8	!
8.B\L 8.d	8.b/L 8.dd	.
16c#\Jk 16e	16cc#/Jk 16ee	.
=12	=12	=12
!	!LO:SIC:s=4b/ 4dd	!
!	!LO:N:vis=8.	!
4B\ 4d	(<4b/ 4dd	.
8A\ 8c#	8a/) 8cc#	.
8r	8r	.
=13	=13	=13
!	!LO:TX:b:i:t=Vnf	!
4AA/	4cc#\ 4ee	.
4A\	4cc#\ 4ee	.
=14	=14	=14
2DD/ 2D	8dd\L 8ff#	.
.	8ee\ 8gg#X	.
.	8ff#\ 8aa	.
.	16r	.
.	16gg#X\Jk 16bb	.
=15	=15	=15
4E\	4ee\ 4ccc#\	.
*	*^	*
4EE/	8.bb/L	4dd\	.
.	16ccc#/Jk	.	.
*	*v	*v	*
=16	=16	=16
4AA;</	4aa;>\	.
*	*Xtuplet	*
4r	12gg#X\L	.
.	12ggn\	.
.	12ee\J	.
=17	=17	=17
*clefG2	*	*
.	8qqcc#/	.
8d/L 8f#	4dd\	.
8A/J	.	.
8d/L 8f#	8dd\L	.
8A/J	8ff#\J	.
=18	=18	=18
*rep	*	*
8d/L 8f#	[>4aa'>\	.
8A/	.	.
8d/ 8f#	4aa\]	.
8A/J	.	.
*Xrep	*	*
=19	=19	=19
*tremolo	*	*
8f#/ 8a/L	4ee\	.
8A/	.	.
.	16qqff#/LL	.
.	16qqee/	.
.	16qqdd#X/JJ	.
8f#/ 8a/	8.ee\L	.
8A/J	.	.
.	16ff#\Jk	.
!LO:LB:g=original	!	!
=20	=20	=20
8c#/ 8e/L	(>4.gg\	.
8A/	.	.
8c#/ 8e/	.	.
8A/J	8ee\)	.
=21	=21	=21
8d/ 8f#/L	4dd\|	.
8A/	.	.
8d/ 8f#/	(>8.dd\L	.
8A/J	.	.
.	16ff#\Jk)	.
=22	=22	=22
8c#/ 8e/L	4ee\|	.
8A/	.	.
8c#/ 8e/	(>8ee\L	.
8A/J	8gg\J)	.
*Xtremolo	*	*
=23	=23	=23
*rep	*	*
*tremolo	*	*
.	8qqdd/	.
8c#/ 8e/L	8cc#\L	.
8A/	16r	.
.	16b\K	.
8c#/ 8e/	8cc#\	.
8A/J	16r	.
.	16ee\Jk	.
*Xtremolo	*	*
*Xrep	*	*
=24	=24	=24
4d/ 4f#	4dd\	.
!LO:TX:a:t=P:problem=dolna fermata bez kropki	!	!
4r;>	4r;>	.
!	!LO:TX:a:i:t=Fin	!
.	.	.
!LO:PB:g=original	!	!
!LO:CL:ed	!	!
*clefF4	*	*
=25:|!	=25:|!	=25:|!
*>C	*>C	*>C
*k[b-]	*k[b-]	*
*M2/4	*M2/4	*
*d:	*d:	*
!	!LO:TX:a:Bi:t=Var. 1	!
!	!LO:TX:a:t=P:problem="Var. 1" przed akoladą	!
.	8qqcc#X/	f
!	!LO:TX:t=P:problem=mixed beam	!
8AA\ 8D 8F	8dd\L	.
8r	8d/J	.
.	8qqdd#X/	.
!	!LO:TX:t=P:problem=mixed beam	!
8AA\ 8E 8G	8ee\L	.
!	!LO:SIC:s=8e	!
8r	8d/J	.
=26	=26	=26
4AA\ 4D 4F	16ff\LL	.
.	16ee\	.
.	16ff\	.
.	16gg\JJ	.
4r	16aa\LL	.
.	16gg\	.
.	16ff\	.
.	16ee\JJ	.
=27	=27	=27
!	!LO:TX:t=P:problem=mixed beam	!
8r	(>16cc#X\LL	.
.	16dd\	.
8AA\ 8D 8F	16d/	.
.	16dd\JJ)	.
!	!LO:TX:t=P:problem=mixed beam	!
8r	(>16dd#X\LL	.
.	16ee\	.
8AA\ 8E 8G	16e/	.
.	16ee\JJ)	.
=28	=28	=28
4AA\ 4D 4F	16ff\LL	.
.	16ee\	.
.	16ff\	.
.	16gg\JJ	.
4r	16aa\LL	.
.	16ff\	.
.	16ee\	.
.	16dd\JJ	.
=29	=29	=29
4AA\ 4C#X 4E	16gg\LL	.
.	16ff#X\	.
.	16gg\	.
.	16aa\JJ	.
4r	16bb-\LL	.
.	16gg\	.
.	16ff#X\	.
.	16gg\JJ	.
=30	=30	=30
4AA\ 4D 4F	(>16aa\LL	.
.	16ddd\	.
.	16aa\	.
.	16ff\JJ)	.
4r	16dd\LL	.
.	16aa\	.
.	16ff\	.
.	16dd\JJ	.
!LO:LB:g=original	!	!
=31	=31	=31
8AA\ 8C 8E	(>16a\LL	.
.	16ee\	.
8r	16gg\	.
.	16ee\JJ)	.
8AA\ 8D 8F	(>16a\LL	.
.	16dd\	.
8r	16ff\)	.
.	16dd\JJ	.
=32	=32	=32
!	!LO:TX:t=P:problem=mixed beam	!
4AA\ 4C 4E	16a/LL	.
.	16aa\	.
.	16gg\	.
.	16aa\JJ	.
4r	8a/	.
.	8r	.
=33:|!|:	=33:|!|:	=33:|!|:
*>D	*>D	*>D
*tremolo	*	*
8F\ 8A\L	(>16ff\LL	.
.	16ee\	.
8c\	16ff\	.
.	16gg\JJ)	.
8F\ 8A\	16aa\LL	.
.	(>16ff\	.
8c\J	16gg\	.
.	16aa\JJ)	.
=34	=34	=34
8F\ 8A\L	8bb-\L|	.
8c\	8gg\J|	.
8F\ 8A\	8ee\|	.
8c\J	8r	.
=35	=35	=35
8E\ 8G\L	(16gg\LL	.
.	16ff#X\	.
8c\	16gg\	.
.	16aa\JJ)	.
8E\ 8G\	16bb-\LL	.
.	16gg\	.
8c\J	16aa\	.
.	16bb-\JJ	.
=36	=36	=36
8G\ 8B-\L	8ccc\L|	.
8c\	8aa\J|	.
8G\ 8B-\	8ff\	.
8c\J	8r	.
*Xtremolo	*	*
=37	=37	=37
*	*8va	*
!	!LO:TX:b:t=P:problem=przenośnik oznaczony łukiem, nie przerywaną linią	!
!	!LO:TX:t=P:problem=mixed beam	!
8F\	(>16eee\LL	.
.	16fff\)	.
8r	16ff/|	.
.	16fff\JJ|	.
!	!LO:TX:t=P:problem=mixed beam	!
8D\	(>16ccc#X\LL	.
.	16ddd\)	.
8r	16dd/|	.
.	16ddd\JJ|	.
=38	=38	=38
8BB-/	(<16aa/LL	.
.	16bb-/)	.
8r	16b-/	.
.	16bb-/JJ	.
8GG/	16ff#X/LL	.
.	16gg/	.
8r	16g/	.
.	16gg/JJ	.
*	*X8va	*
!LO:LB:g=original	!	!
=39	=39	=39
4CC/ 4C	16c/LL	.
.	16e/	.
.	16g/	.
.	16b-/JJ	.
8r	16cc\LL	.
.	16ee\	.
8C\ 8E	16gg\	.
.	16bb-\JJ	.
=40	=40	=40
8C\L 8F	16aa\LL	.
.	16ff\	.
8C\J 8E	16bb-\	.
.	16gg\JJ	.
8C\L 8F	16aa\LL	.
.	16ff\	.
8C\J 8E	16bb-\	.
.	16gg\JJ	.
=41	=41	=41
8C\L 8F	16aa\LL	.
.	16ff\	.
8G\	16bb-\	.
.	16gg\JJ	.
8A\	16ccc\LL	.
.	16aa\	.
8F\J 8B-	16ddd\	.
.	16bb-\JJ	.
=42	=42	=42
8F\L 8A	16ccc\LL	.
.	(>16aa\	.
8F\J 8B-	(>16ddd\)	.
.	16bb-\JJ)	.
8F\L 8A	(>16ccc\LL	.
.	16aa\)	.
8F\J 8B-	16ddd\	.
.	16bb-\JJ	.
=43	=43	=43
!	!LO:TX:t=P:problem=mixed beam	!
4F\ 4A	16ccc\LL	.
.	16a/|	.
.	16b-/|	.
.	16cc/JJ|	.
4r	16dd\LL	.
.	16ee\	.
.	16ff\	.
.	16gg\JJ	.
=44	=44	=44
8r	8aa\L	.
8F\L 8A	8ff\ 8fff	.
8F\ 8A	8cc\ 8ccc	.
8F\J 8A	8a\J 8aa	.
=45	=45	=45
8C\L 8G	4cc\	.
8C\J 8G	.	.
8C\L 8B-	4ggT>\	.
8C\J 8B-	.	.
=46	=46	=46
4F\ 4A	16ff\LL	.
.	16ee\	.
.	16ff\	.
.	16gg\JJ	.
4r	16aa\LL	.
.	16gg\	.
.	16ff\	.
.	16ee\JJ	.
!LO:LB:g=original	!	!
=47	=47	=47
.	8qqcc#X/	.
!	!LO:TX:t=P:problem=mixed beam	!
8AA\L 8D 8F	8dd\L	.
8AA\J 8D 8F	8d/J	.
.	8qqdd#X/	.
!	!LO:TX:t=P:problem=mixed beam	!
8AA\L 8E 8G	8ee\L	.
8AA\J 8E 8G	8e/J	.
=48	=48	=48
4D\ 4F	16ff\LL	.
.	16ee\	.
.	(>16ff\	.
.	16gg\JJ	.
4r	16aa\LL	.
.	16gg\)	.
.	16ff\	.
.	16ee\JJ	.
=49	=49	=49
!	!LO:TX:t=P:problem=mixed beam	!
8r	(>16cc#X\LL	.
.	16dd\)	.
8AA\ 8D 8F	16d/	.
.	16dd\JJ	.
!	!LO:TX:t=P:problem=mixed beam	!
8r	(>16dd#X\LL	.
.	16ee\	.
8AA\ 8E 8G	16e/)	.
.	16ee\JJ	.
=50	=50	=50
4D\ 4F	(>16ff\LL	.
.	16ee\	.
.	16ff\	.
.	16gg\JJ)	.
4r	16aa\LL	.
.	16ff\	.
.	16ee\	.
.	16dd\JJ	.
=51	=51	=51
4AA\ 4C#X 4E	16gg\LL	.
.	16ff#X\	.
.	16gg\	.
.	16aa\JJ	.
4r	16bb-\LL	.
.	16gg\	.
.	16ffn\	.
.	16ee\JJ	.
=52	=52	=52
4AA\ 4D 4F	(16aa\LL	.
.	16ddd\	.
.	16aa\)	.
.	16ff\JJ	.
4r	16dd\LL	.
.	16aa\	.
.	16ff\	.
.	16dd\JJ	.
=53	=53	=53
4G\	16ee\LL	.
.	16bb-\	.
.	16aa\	.
.	16gg\JJ	.
!LO:TX:t=P:problem=mixed beam	!	!
8A\L	16ff\LL	.
.	16ee\	.
8AA/J	16dd\	.
.	16cc#X\JJ	.
=54	=54	=54
!	!LO:TX:a:i:t=Andante da Capo	!
.	8qqcc/	.
8D/L	4dd\	.
8AA/J	.	.
4DD/	4r	.
!LO:PB:g=original	!	!
==55	==55	==55
*>E	*>E	*>E
*clefF4	*clefG2	*
*k[f#]	*k[f#]	*
*M2/4	*M2/4	*
*G:	*G:	*
!LO:TX:b:t=P::problem=kolejność oznaczeń&colon; klucz, krzyżyk, metrum	!	!
!	!LO:TX:a:Bi:t=Var. 2.	!
!	!LO:TX:a:t=P:problem="Var. 2." przed akoladą	!
8r	8g/L	.
8GG/ 8BB 8D	16a/L	.
.	16b/JJ	.
8GG/L 8BB 8D	16cc\LL	.
.	16dd\	.
8GG/J 8BB 8D	16ee\	.
.	16ff#\JJ	.
=56	=56	=56
8r	16gg\LL	.
.	16aa\	.
8GG/ 8BB 8D	16bb\	.
.	16ccc\JJ	.
8GG/L 8BB 8D	8ddd\L	.
8GG/J 8BB 8D	8ddd\J	.
=57	=57	=57
8r	8ddd\L	.
8AA/ 8C 8D	8ccc#X\	.
8AA/L 8C 8D	8cccn\	.
8AA/J 8C 8D	8bbn\J	.
=58	=58	=58
8r	4aa\	.
*rep	*	*
8AA/ 8C 8D	.	.
8AA/L 8C 8D	4r	.
8AA/J 8C 8D	.	.
*Xrep	*	*
=59	=59	=59
8r	8d/L	.
8FF#/ 8AA 8D	16e/L	.
.	16f#/JJ	.
8FF#/L 8AA 8D	16g/LL	.
.	16a/	.
8FF#/J 8AA 8D	16b/	.
.	16cc/JJ	.
=60	=60	=60
8r	16dd\LL	.
.	16ee\	.
8FF#/ 8AA 8D	16ff#\	.
.	16gg\JJ	.
8FF#/L 8AA 8D	16aa\LL	.
.	16bb\	.
8FF#/J 8AA 8D	16ccc\	.
.	16ddd\JJ	.
=61	=61	=61
8r	8ccc\L	.
8GG/ 8BB 8D	8bb\	.
8GG/L 8BB 8D	8aa\	.
8GG/J 8BB 8D	8gg\J	.
=62	=62	=62
8r	4gg\	.
8GG/ 8BB 8D	.	.
8GG/L 8BB 8D	4r	.
8GG/J 8BB 8D	.	.
!LO:LB:g=original	!	!
=63	=63	=63
!LO:TX:a:t=P:problem=t. 63-70 klucz F przy akoladzie zanotowany o tercję za nisko (3 linia)	!	!
4D\ 4G 4B	(>8bb\L	.
.	8ccc\J)	.
4D\ 4A 4c	8aa\L	.
.	8ff#\J	.
=64	=64	=64
4D\ 4G 4B	(>16gg\LL	.
.	16aa\	.
.	16bb\	.
.	16ccc\JJ)	.
4r	(>8.ddd\L	.
.	16ccc\Jk)	.
=65	=65	=65
4D\ 4G 4B	(>8bb\L	.
.	8ccc\J)	.
4D\ 4A 4c	8aa\L	.
.	8ff#\J	.
=66	=66	=66
4D\ 4G 4B	16gg\LL	.
.	16aa\	.
.	16bb\	.
.	16ccc\JJ	.
4r	8ddd\	.
.	16r	.
.	16ccc\	.
=67	=67	=67
.	8qqccc/	.
4GG/ 4G	8bb\L	.
.	16aa\L	.
.	16bb\JJ	.
.	8qqddd/	.
4AA/ 4A	8ccc#X\L	.
.	16bb\L	.
.	16ccc#\JJ	.
=68	=68	=68
4D\	16ddd\LL	.
.	16ccc#X\	.
.	16bb\	.
.	16aa\JJ	.
4r	16gg\LL	.
.	16ff#\	.
.	16ee\	.
.	16dd\JJ	.
=69	=69	=69
4G\	8gg\L	.
.	8bb\	.
!LO:TX:a:t=P:problem=mixed beam	!	!
8A\L	8aa\	.
8AA/J	8cc#X\J	.
=70	=70	=70
!	!LO:SIC:s=4.dd	!
!	!LO:N:vis=4	!
8D/L	4.dd\	.
8AA/	.	.
8DD/J	.	.
.	.	.
.	16qff#/LL	.
.	16qaa/JJ	.
8r	8ddd\	.
!LO:LB:g=original	!	!
=71:|!|:	=71:|!|:	=71:|!|:
*>F	*>F	*>F
2G#\	16ddd\LL	.
.	16ccc\	.
.	16bb\	.
.	16ccc\JJ	.
.	16ddd\LL	.
.	16ccc\	.
.	16bb\	.
.	16ccc\JJ	.
=72	=72	=72
4E\	16ddd\LL	.
.	16ccc\	.
.	16bb\	.
.	16aa\JJ	.
4G#X\	16gg#X\LL	.
.	16ffn\	.
.	16ee\	.
.	16dd\JJ	.
=73	=73	=73
8A\L	(>16cc\LL|	.
.	16ee\)|	.
8G#X\J	(>16b\|	.
.	16ee\JJ)|	.
8A\L	16cc\LL	.
.	16ee\	.
8G#\J	16b\	.
.	16ee\JJ	.
=74	=74	=74
!LO:TX:t=P:problem=mixed beam	!	!
8A\L	16cc\LL	.
.	16ee\	.
8AA/J	16ffn\	.
.	16ee\JJ	.
4r	16dd\LL	.
.	16cc\	.
.	16b\	.
.	16a\JJ	.
=75	=75	=75
2F#X\	16ccc\LL	.
.	16bb\	.
.	16aa\	.
.	16bb\JJ	.
.	16ccc\LL	.
.	16bb\	.
.	16aa\	.
.	16bb\JJ	.
=76	=76	=76
4D\	16ccc\LL	.
.	16bb\	.
.	16aa\	.
.	16gg\JJ	.
4F#\	16ff#X\LL	.
.	16ee\	.
.	16dd\	.
.	16cc\JJ	.
=77	=77	=77
8G\L	16b\LL|	.
.	16dd\|	.
8F#X\J	16a\|	.
.	16dd\JJ|	.
8G\L	16b\LL|	.
.	16dd\|	.
8F#\J	16a\|	.
.	16dd\JJ|	.
!LO:LB:g=original	!	!
=78	=78	=78
!LO:TX:t=P:problem=mixed beam	!	!
8G\L	16b\LL	.
.	16dd\	.
8GG/J	16ee\	.
.	16dd\JJ	.
4r	16cc/LL	.
.	16b/	.
.	16a/	.
.	16g/JJ	.
=79	=79	=79
4C/	16ee\LL	.
.	16ff#\	.
.	16gg\	.
.	16ff#\JJ	.
4c\	16aa\LL	.
.	16gg\	.
.	16ff#\	.
.	16ee\JJ	.
=80	=80	=80
4B\	8dd\L|	.
.	8ddd\|	.
4G\	8bb\	.
.	8gg\J	.
=81	=81	=81
4C/	16ee\LL	.
.	16ff#\	.
.	16gg\	.
.	16ff#\JJ	.
4c\	16aa\LL	.
.	16gg\	.
.	16ff#\	.
.	16ee\JJ	.
=82	=82	=82
4B\	16dd\LL	.
.	16ddd\	.
.	16ccc#X\	.
.	16ddd\JJ	.
4G\	16cccn\LL	.
.	16bb\	.
.	16aa\	.
.	16gg\JJ	.
=83	=83	=83
4C\ 4c	8ee\L	.
.	8gg\	.
4D\ 4d	8ff#\	.
.	8aa\J	.
=84	=84	=84
4E\ 4e	8gg\L	.
.	8bb\	.
4F#\ 4f#	8aa\	.
.	8ccc\J	.
=85	=85	=85
8G\L 8g	16bb\L	.
.	16gg\	.
8c\J	16ccc\	.
.	16aa\J	.
!LO:TX:t=P:problem=mixed beam	!	!
8d\L	8gg\L	.
.	.	.
8D/J	8ff#X\J	.
=86	=86	=86
8G\L	4gg\	.
8F#\J	.	.
4GG/	4r	.
!LO:PB:g=original	!	!
=87:|!	=87:|!	=87:|!
*>G	*>G	*>G
*clefF4	*clefG2	*
*M2/4	*M2/4	*
*k[f#c#]	*k[f#c#]	*
*D:	*D:	*
!	!	!LO:HP:a:i:t=p.
!LO:CL:ed	!	!LO:DY:b:rj
*clefG2	*	*
!LO:TX:t=P::problem=kolejność oznaczeń&colon;klucz, znaki przykluczowe, metrum	!LO:TX:t=P::problem=kolejność oznaczeń&colon; klucz, znaki przykluczowe, metrum	!
8d/L 8f#	4dd\|	p
8A/	.	.
8d/ 8f#	(>8dd\L	.
8A/J	8ff#\J)	.
=88	=88	=88
*rep	*	*
8d/L 8f#	4aa\	.
8A/	.	.
8d/ 8f#	4aa\	.
8A/J	.	.
*Xrep	*	*
=89	=89	=89
8c#/L 8e	4ee\	.
8A/J	.	.
.	16qqff#/LL	.
.	16qqee/	.
.	16qqdd#X/JJ	.
!	!LO:SIC:s=8.ee	!
!	!LO:N:vis=8	!
8c#/L 8e	8.ee\L	.
8A/J	.	.
.	16ff#\Jk	.
=90	=90	=90
*rep	*	*
8c#/L 8e	(>4.gg\	.
8A/	.	.
8c#/ 8e	.	.
8A/J	8ee\)	.
*Xrep	*	*
=91	=91	=91
*tremolo	*	*
8d/ 8f#/L	4dd\	.
8A/	.	.
8d/ 8f#/	8dd\L	.
8A/J	8ff#\J	.
=92	=92	=92
8e/ 8g/L	4ee\	.
8A/	.	.
8e/ 8g/	8ee\L	.
8A/J	8gg\J	.
*Xtremolo	*	*
=93	=93	=93
*rep	*	*
*tremolo	*	*
.	8qqdd/	.
8e/ 8g/L	8cc#\L	.
8A/	16r	.
.	16b\K	.
8e/ 8g/L	8cc#\	.
8A/	16r	.
.	16ee\Jk	.
*Xrep	*	*
*Xtremolo	*	*
=94	=94	=94
*>H	*>H	*>H
.	8qqee/	.
2d/ 2f#	2dd\	.
=95:|!|:	=95:|!|:	=95:|!|:
!LO:CL:ed	!	!
*clefF4	*	*
4c#\ 4e	4cc#\ 4ee	.
4c#\ 4e	4cc#\ 4ee	.
!LO:LB:g=original	!	!
=96	=96	=96
4.c#\ 4.e	(>4.cc#\ 4.ee	.
8A\ 8c#	8a\) 8cc#	.
=97	=97	=97
!LO:TX:b:t=P:problem=po nucie "8e" jest kasownik	!LO:TX:b:t=P:problem=między nutami 1-2 i 3-4 wykreślone pauzy	!
8En\L 8B	8b\L	.
8A\ 8c#	8cc#\	.
8B\ 8d	8dd\	.
!LO:N:vis=16	!	!
8c\Jk 8e	8ee\J	.
=98	=98	=98
4B\ 4d	4b\ 4dd	.
8A\	8a\ 8cc#	.
8r	8r	.
=99	=99	=99
4AA/	4cc#\ 4ee	.
4A\	4cc#\ 4ee	.
=100	=100	=100
2D\	(>8dd\L 8ff#	.
.	8ee\J) 8gg#X	.
.	(>8ff#\L 8aa	.
!	!LO:TX:b:t=P:problem=skreślona pauza przed nutami	!
.	8gg#X\Jk) 8bb	.
=101	=101	=101
4G\	4ee\ 4ccc#\	.
*	*^	*
!	!LO:SIC:s=8.bb	!	!
!	!LO:N:vis=8	!	!
4EE/	8.bb/L	4dd\	.
.	16ccc#/Jk	.	.
*	*v	*v	*
=102	=102	=102
4AA;>/	4aa;>\	.
4r	12gg#X\L	.
.	12ggn\	.
.	12ee\J	.
=103	=103	=103
*clefG2	*	*
*tremolo	*	*
8d/ 8f#/L	4dd\	.
8A/	.	.
8d/ 8f#/	8dd\L	.
8A/J	8ff#\J	.
*Xtremolo	*	*
=104	=104	=104
*rep	*	*
*tremolo	*	*
!	!LO:SIC:s=4aa	!
!	!LO:N:vis=4.	!
8f#/ 8a	(>4aa\	.
8A/	.	.
!	!LO:SIC:s=4aa	!
!	!LO:N:vis=4.	!
8f#/ 8a	4aa\)	.
8A/	.	.
*Xtremolo	*	*
*Xrep	*	*
!LO:LB:g=original	!	!
=105	=105	=105
*tremolo	*	*
8e/ 8g/L	4ee\	.
8A/	.	.
.	16qqff#/LL	.
.	16qqee/	.
.	16qqdd#X/JJ	.
!	!LO:SIC:s=8.ee	!
!	!LO:N:vis=8	!
8e/ 8g/	(>8.ee\L	.
8A/J	.	.
.	16ff#\Jk)|	.
*Xtremolo	*	*
=106	=106	=106
*rep	*	*
*tremolo	*	*
8e/ 8g/L	4.gg\	.
8A/	.	.
8e/ 8g/	.	.
8A/J	8ee\	.
*Xtremolo	*	*
*Xrep	*	*
=107	=107	=107
*tremolo	*	*
8d/ 8f#/L	4dd\|	.
8A/	.	.
8d/ 8f#/	(>8.dd\L	.
8A/J	.	.
.	16ff#\Jk)	.
=108	=108	=108
8e/ 8g/L	4ee\|	.
8A/	.	.
8e/ 8g/	(>8ee\L	.
8A/J	8gg\J)	.
*Xtremolo	*	*
=109	=109	=109
*rep	*	*
*tremolo	*	*
.	8qqdd/	.
8e/ 8g/L	8cc#\L	.
8A/	16r	.
.	16b\K	.
8e/ 8g/L	8cc#\	.
8A/	16r	.
.	16ee\Jk	.
*Xrep	*	*
*Xtremolo	*	*
=110	=110	=110
4d/ 4f#	4dd\	.
4r	4r	.
==	==	==
*-	*-	*-
!!!system-decoration: {(s1,s2)}
!!!RDF**kern: > = above
!!!RDF**kern: < = below
!!!EED: Mateusz Mrugas
!!!EEV: 2020-10-15
!!!ENC: Mateusz Solarz
!!!END: 2020-06-10
!!!RDF**kern: | = vertical stroke
